config/expand/iconfont/module-menu/module-pinzhiguanli.svg

<?xml version="1.0" encoding="UTF-8"?>
<svg width="25px" height="22px" viewBox="0 0 25 22" version="1.1" xmlns="http://www.w3.org/2000/svg" xmlns:xlink="http://www.w3.org/1999/xlink">
    <!-- Generator: Sketch 53 (72520) - https://sketchapp.com -->
    <title>pinzhiguanli</title>
    <desc>Created with Sketch.</desc>
    <defs>
        <linearGradient x1="82.3245512%" y1="4.76023712%" x2="50%" y2="43.2587718%" id="linearGradient-1">
            <stop stop-color="#B7B7B7" offset="0%"></stop>
            <stop stop-color="#FFFFFF" offset="100%"></stop>
        </linearGradient>
        <linearGradient x1="14.3387761%" y1="50%" x2="100%" y2="50%" id="linearGradient-2">
            <stop stop-color="#B7B7B7" offset="0%"></stop>
            <stop stop-color="#FFFFFF" offset="100%"></stop>
        </linearGradient>
    </defs>
    <g id="Page-2" stroke="none" stroke-width="1" fill="none" fill-rule="evenodd">
        <g id="图标" transform="translate(-426.000000, -539.000000)">
            <g id="pinzhiguanli" transform="translate(426.000000, 539.000000)">
                <path d="M14.5033572,16.9999995 L17.7922,13.4076166 C18.2220436,12.6674921 18.8673286,12.0440645 18.4374851,11.30394 L14.3926405,6.01166226 C13.9625213,5.27106296 12.3490655,3.99945221 11.4888271,4.00000049 L7,4.00000049 L8.62752822,1.19606044 C9.05764734,0.455461145 9.85274734,-0.00054779396 10.7129857,4.9387382e-07 L17.8067497,4.9387382e-07 C18.6669881,-0.00054779396 19.4620881,0.455461145 19.8922073,1.19606044 L24.5496423,7.90304808 C24.9794859,8.64317257 24.9794859,9.55504354 24.5496423,10.295168 L19.8922073,15.8039395 C19.4620882,16.5445388 18.6669881,17.0005478 17.8067497,16.9999995 L14.5033572,16.9999995 Z" id="Combined-Shape-Copy-7" fill="url(#linearGradient-1)"></path>
                <path d="M10.5190311,13.7898456 L7.50603407,10.0260277 L4.8145186,10.0260277 C8.03390528,13.9356789 9.93540946,16.2603363 10.5190311,17 C11.1026528,16.2339197 12.9884703,13.9224706 16.1764837,10.0656526 L13.4555157,10.0656526 L10.5190311,13.7898456 Z" id="Shape" fill="url(#linearGradient-2)"></path>
                <path d="M10.4812542,22 C10.0330918,22 9.42196111,21.9146067 8.68860433,21.1033708 L5.38849883,17.388764 C3.2699126,14.9977528 1.4772627,12.9910112 0.662421833,12.0516854 L0.621679794,11.9662921 C-0.233903116,10.7280899 -0.193161077,9.40449438 0.662421833,8.42247191 C1.11058431,7.91011236 2.1291354,6.75730337 2.86249217,5.9460674 L3.47362282,5.22022471 C3.92178529,4.70786516 4.36994777,4.23820224 4.65514206,3.89662922 C5.18478862,3.2988764 5.79591927,3 6.44779196,3 C7.07250329,3 7.73795666,3 8.44415208,3 L14.5554585,3 C15.4517835,3.04269663 15.940688,3.55505617 16.2666244,3.89662922 C16.9999811,4.66516854 18.5074367,6.37303372 19.4852458,7.48314606 L20.3408287,8.42247191 C21.3186377,9.5752809 21.1149275,11.1550562 20.3408287,12.0516854 C19.4852458,13.0337078 17.9777902,14.6988764 16.1851403,16.705618 L12.2739041,21.1033708 C11.5405474,21.9146067 10.9701587,22 10.4812542,22 Z M11.5748917,5.01622839 L7.42321885,5.01622839 C7.18422469,5.01622839 6.54115274,5.10258711 6.17312694,5.47162089 C5.84653165,5.79851479 3.01606958,8.61046683 2.64050732,9.0954165 C2.12837697,9.74201606 2.12837697,10.3540573 2.64050732,11.2027193 C3.09573431,11.7954355 5.38223187,14.4603237 9.5,19.1973839 C9.90970428,19.722746 10.2169825,19.803571 10.4901187,19.803571 C10.7291128,19.803571 11.036391,19.7631585 11.4802373,19.1973839 C15.51409,14.4872654 17.7700104,11.8223772 18.2479988,11.2027193 C18.657703,10.6369446 18.7942711,9.86781965 18.2479988,9.14039512 C15.795562,6.41484818 14.3986335,5.03860389 14.0572133,5.01166226 C13.6938993,5.01166226 13.0771407,5.01622841 11.5748917,5.01622839 Z" id="Shape" fill="#333333" fill-rule="nonzero"></path>
            </g>
        </g>
    </g>
</svg>

<svg width="25" height="22" xmlns="http://www.w3.org/2000/svg"><path d="M14.503 17l3.29-3.592c.429-.74 1.074-1.364.644-2.104l-4.044-5.292c-.43-.74-2.044-2.013-2.904-2.012H7l1.628-2.804A2.409 2.409 0 0110.713 0h7.094c.86 0 1.655.455 2.085 1.196l4.658 6.707c.43.74.43 1.652 0 2.392l-4.658 5.509A2.409 2.409 0 0117.807 17h-3.304z"/><path d="M10.519 13.79l-3.013-3.764H4.815c3.219 3.91 5.12 6.234 5.704 6.974.584-.766 2.47-3.078 5.657-6.934h-2.72l-2.937 3.724z"/><path d="M10.481 22c-.448 0-1.059-.085-1.792-.897l-3.3-3.714c-2.12-2.391-3.912-4.398-4.727-5.337l-.04-.086c-.856-1.238-.815-2.562.04-3.544a264.56 264.56 0 012.2-2.476l.612-.726c.448-.512.896-.982 1.181-1.323C5.185 3.299 5.795 3 6.448 3h8.107c.897.043 1.386.555 1.712.897.733.768 2.24 2.476 3.218 3.586l.856.94c.978 1.152.774 2.732 0 3.629-.856.982-2.363 2.647-4.156 4.654l-3.911 4.397c-.733.812-1.304.897-1.793.897zm1.094-16.984H7.423c-.239 0-.882.087-1.25.456-.326.327-3.157 3.138-3.532 3.623-.513.647-.513 1.26 0 2.108.455.592 2.741 3.257 6.859 7.994.41.526.717.607.99.607.24 0 .546-.04.99-.607 4.034-4.71 6.29-7.375 6.768-7.994.41-.566.546-1.335 0-2.063-2.452-2.725-3.85-4.101-4.19-4.128-.364 0-.98.004-2.483.004z"/></svg>
